src/pos-icons/printer-alert.svg

<svg height="24" viewBox="0 0 24 24" width="24" xmlns="http://www.w3.org/2000/svg"><path d="m14 4v4h-8v-4zm1 9a1 1 0 0 0 1-1 1 1 0 0 0 -1-1 1 1 0 0 0 -1 1 1 1 0 0 0 1 1m-2 6v-4h-6v4zm2-10a3 3 0 0 1 3 3v5h-3v4h-10v-4h-3v-5a3 3 0 0 1 3-3zm7-2v5h-2v-5zm0 7v2h-2v-2z"/></svg>

<?xml version="1.0" encoding="UTF-8"?><!DOCTYPE svg PUBLIC "-//W3C//DTD SVG 1.1//EN" "http://www.w3.org/Graphics/SVG/1.1/DTD/svg11.dtd"><svg xmlns="http://www.w3.org/2000/svg" xmlns:xlink="http://www.w3.org/1999/xlink" version="1.1" id="mdi-printer-alert" width="24" height="24" viewBox="0 0 24 24"><path d="M14,4V8H6V4H14M15,13A1,1 0 0,0 16,12A1,1 0 0,0 15,11A1,1 0 0,0 14,12A1,1 0 0,0 15,13M13,19V15H7V19H13M15,9A3,3 0 0,1 18,12V17H15V21H5V17H2V12A3,3 0 0,1 5,9H15M22,7V12H20V7H22M22,14V16H20V14H22Z" /></svg>
